X:1
T:Title
%%score { ( 1 3 ) | 2 }
L:1/8
Q:1/4=94
M:4/4
K:D
V:1 treble nm="Grand Piano"
V:3 treble 
V:2 bass 
V:1
 (3[FA][FA][FA] [DFA]>[DFB] [DFA]2 [Dd]2 | .d2 z2 z4 | [Ge]2 [CE][DF] [EG][FA] [EGc]>[CGB] | %3
w: J.~B.~Herbert * * * * * *|||
 [GB]2 [FA][=F^G] [^FA]3 [FA] | [Fd]2 FF FF [DF]>[DF] | z4 B4 | [FA] [FA]2 [GB] [FA] d2 G | %7
w: ||||
 F2 [CE]2 D4 |] %8
w: |
V:2
 (3[D,D][D,D][D,D] A,,>A,, D,2 [F,A,]2 | [E,A,]2 [A,,A,][A,,A,] [E,A,]3 [E,A,] | %2
 [A,,C]2 [A,,A,][A,,A,] [A,,A,][A,,A,] A,,>A,, | [D,D]2 [D,D]2 [D,D]3 [D,D] | %4
 [D,A,]2 [D,A,D][D,A,D] [D,A,D][D,A,D] [=C,A,]>[C,A,] | [B,,G,]2 [D,F,D]2 [G,D]4 | %6
 [D,D] [D,D]2 [D,D] [D,D] [F,A,D]2 [G,B,E] | [A,D]2 [A,,G,]2 [D,F,]4 |] %8
V:3
 x8 | G-[Gc][Gc][GB] [Gc]3 [Gc] | x8 | x8 | x8 | [DG]2 A2 z2 B,2 | x8 | x8 |] %8

